X:18814
T:Wimble's Reel. BF11.31
M:2/2
L:1/8
Q:150
C:Browne A hand
S:MS11,c1800?.,Browne Coll.,Lakes
R:Reel
O:England
A:Lakes
Z:vmp.Cherri Graebe.
K:C major
EG c2 EG c2|(d/c/B/A/) cE D/D/D D2|!EG c2 EGc2|(d/c/B/A/) cE C/C/C C2:|!
|:egcg ecgc|fagf d/d/d dg|!egcg ecge|(d/c/B/A/) cE C/C/C C2:|]


